Papirus/48x48/apps/gwenview.svg

<!-- Created with Inkscape (http://www.inkscape.org/) -->
<svg width="48" height="48" version="1.1" viewBox="0 0 48 48" xmlns="http://www.w3.org/2000/svg">
 <path d="m24 9c-11.045658 0-19.12695 8.767154-20 16 0.87305 7.232846 8.95434 16 20 16 11.045656 0 19.126948-8.767154 20-16-0.873052-7.232846-8.954342-16-20-16z" style="opacity:.2"/>
 <path d="m24 8c-11.045658 0-19.12695 8.767154-20 16 0.8730506 7.232846 8.95434 16 20 16 11.045656 0 19.126948-8.767154 20-16-0.873052-7.232846-8.954342-16-20-16z" style="fill:#d35297"/>
 <circle cx="24" cy="25" r="12" style="opacity:.1"/>
 <path d="M 24,8 C 12.954365,8 4.8730488,16.76717 4,24 4.01992,24.16502 4.045888,24.32928 4.074218,24.496094 5.2493458,17.36613 13.20875,9 24,9 34.79125,9 42.750652,17.36613 43.925782,24.496094 43.954112,24.32928 43.980082,24.16502 44,24 43.126948,16.76717 35.045634,8 24,8 Z" style="fill:#ffffff;opacity:.1"/>
 <circle cx="24" cy="24" r="12" style="fill:#e4e4e4"/>
 <path d="m28 16c-1.10457 0-2 0.89543-2 2s0.89543 2 2 2 2-0.89543 2-2-0.89543-2-2-2zm-8 4-5.152344 8c1.588626 3.64001 5.180772 5.994912 9.152344 6 3.971572-5e-3 7.563718-2.35999 9.152344-6h-3.152344l-3-4-3 3z" style="opacity:.2"/>
</svg>

<svg xmlns="http://www.w3.org/2000/svg" width="48" height="48" version="1.1">
 <path style="opacity:0.2" d="M 24,9 C 12.954,9 4.873,17.767 4,25 4.873,32.233 12.954,41 24,41 35.046,41 43.127,32.233 44,25 43.127,17.767 35.046,9 24,9 Z"/>
 <path style="fill:#d35297" d="m24 8c-11.046 0-19.127 8.767-20 16 0.873 7.233 8.954 16 20 16 11.046 0 19.127-8.767 20-16-0.873-7.233-8.954-16-20-16z"/>
 <circle style="opacity:0.1" cx="24" cy="25" r="12"/>
 <circle style="fill:#e4e4e4" cx="24" cy="24" r="12"/>
 <path style="fill:#ffffff;opacity:0.1" d="M 24 8 C 12.954 8 4.873 16.767 4 24 C 4.02 24.166 4.0486 24.333 4.0762 24.5 C 5.2499 17.369 13.207 9 24 9 C 34.793 9 42.75 17.369 43.924 24.5 C 43.951 24.333 43.98 24.166 44 24 C 43.127 16.767 35.046 8 24 8 z"/>
 <path style="fill:#b6b6b6" d="M 31,19 A 3,3 0 0 1 28,22 3,3 0 0 1 25,19 3,3 0 0 1 28,16 3,3 0 0 1 31,19 Z M 20,20 14.848,28 C 16.436,31.64 20.028,33.995 24,34 27.972,33.995 31.564,31.64 33.152,28 H 30 L 27,24 24,27 Z"/>
</svg>
